svg/Pictogram/pictograms-nps-accessibility-audio_description.svg

<svg xmlns="http://www.w3.org/2000/svg" viewBox="0 0 256 256"><path d="m0 0c-.541 0-.98-.441-.98-.982v-7.524c0-.541.439-.982.98-.982h7.527c.543 0 .983.441.983.982v7.524c0 .541-.44.982-.983.982h-7.527" fill="#fff" transform="matrix(25.88211 0 0-25.88211 30.593 5.215)"/><path d="m0 0c-.652 0-1.182.529-1.182 1.184v7.523c0 .652.53 1.182 1.182 1.182h7.527c.653 0 1.182-.53 1.182-1.182v-7.523c0-.655-.529-1.184-1.182-1.184h-7.527" transform="matrix(25.88211 0 0-25.88211 30.593 256)"/><path d="m0 0c-.795 0-1.439 1.314-1.439 2.936 0 1.621.644 2.935 1.439 2.935h5.133c.795 0 1.439-1.314 1.439-2.935 0-1.622-.644-2.936-1.439-2.936h-5.133" fill="#fff" transform="matrix(25.88211 0 0-25.88211 60.973 203.83)"/><path d="m0 0c.381 0 .688-.309.688-.688 0-.38-.307-.689-.688-.689h-.18v1.377h.18m.07-1.979c.713 0 1.293.579 1.293 1.291 0 .715-.574 1.293-1.287 1.293h-.008-.791v-2.585h.793" transform="matrix(25.88211 0 0-25.88211 131.49 110.11)"/><path d="m0 0h-.566v.342h-.948l-.218-.342h-.831l1.856 2.586h.707v-2.586" transform="matrix(25.88211 0 0-25.88211 105.86 161.37)"/><path d="m0 0h-.596l.596.926v-.926" fill="#fff" transform="matrix(25.88211 0 0-25.88211 91.3 138.57)"/><path d="m0 0h-.082-.154-.082c.359-.357.566-.846.566-1.354 0-.451-.162-.882-.449-1.224h.082.14.083c.255.351.398.781.398 1.224 0 .499-.182.979-.502 1.354" transform="matrix(25.88211 0 0-25.88211 205.95 94.39)"/><path d="m0 0h-.082-.154-.082c.359-.357.566-.846.566-1.354 0-.451-.162-.882-.449-1.224h.082.14.081c.257.351.4.781.4 1.224 0 .499-.182.979-.502 1.354" transform="matrix(25.88211 0 0-25.88211 189.12 94.39)"/><path d="m0 0h-.08-.156-.08c.359-.357.564-.846.564-1.354 0-.451-.162-.882-.447-1.224h.082.138.083c.257.351.398.781.398 1.224 0 .499-.18.979-.502 1.354" transform="matrix(25.88211 0 0-25.88211 172.24 94.39)"/></svg>

<?xml version="1.0" encoding="UTF-8" standalone="no"?>
<!-- Created with Inkscape (http://www.inkscape.org/) -->
<svg
   xmlns:dc="http://purl.org/dc/elements/1.1/"
   xmlns:cc="http://creativecommons.org/ns#"
   xmlns:rdf="http://www.w3.org/1999/02/22-rdf-syntax-ns#"
   xmlns:svg="http://www.w3.org/2000/svg"
   xmlns="http://www.w3.org/2000/svg"
   xmlns:sodipodi="http://sodipodi.sourceforge.net/DTD/sodipodi-0.dtd"
   xmlns:inkscape="http://www.inkscape.org/namespaces/inkscape"
   width="256"
   height="256"
   id="svg5294"
   sodipodi:version="0.32"
   inkscape:version="0.46"
   version="1.0"
   sodipodi:docname="pictograms-nps-accessibility-audio_description-2.svg"
   inkscape:output_extension="org.inkscape.output.svg.inkscape">
  <defs
     id="defs5296">
    <inkscape:perspective
       sodipodi:type="inkscape:persp3d"
       inkscape:vp_x="0 : 526.18109 : 1"
       inkscape:vp_y="0 : 1000 : 0"
       inkscape:vp_z="744.09448 : 526.18109 : 1"
       inkscape:persp3d-origin="372.04724 : 350.78739 : 1"
       id="perspective5302" />
  </defs>
  <sodipodi:namedview
     id="base"
     pagecolor="#ffffff"
     bordercolor="#666666"
     borderopacity="1.0"
     gridtolerance="10000"
     guidetolerance="10"
     objecttolerance="10"
     inkscape:pageopacity="0.0"
     inkscape:pageshadow="2"
     inkscape:zoom="1.4"
     inkscape:cx="124.57192"
     inkscape:cy="118.51667"
     inkscape:document-units="px"
     inkscape:current-layer="layer1"
     showgrid="false"
     inkscape:window-width="747"
     inkscape:window-height="674"
     inkscape:window-x="0"
     inkscape:window-y="309" />
  <metadata
     id="metadata5299">
    <rdf:RDF>
      <cc:Work
         rdf:about="">
        <dc:format>image/svg+xml</dc:format>
        <dc:type
           rdf:resource="http://purl.org/dc/dcmitype/StillImage" />
      </cc:Work>
    </rdf:RDF>
  </metadata>
  <g
     inkscape:label="Layer 1"
     inkscape:groupmode="layer"
     id="layer1">
    <g
       id="g3628"
       transform="matrix(25.882115,0,0,-25.882115,30.59266,5.2151427)">
      <path
         d="M 0,0 C -0.541,0 -0.98,-0.441 -0.98,-0.982 L -0.98,-8.506 C -0.98,-9.047 -0.541,-9.488 0,-9.488 L 7.527,-9.488 C 8.07,-9.488 8.51,-9.047 8.51,-8.506 L 8.51,-0.982 C 8.51,-0.441 8.07,0 7.527,0 L 0,0 z"
         style="fill:#ffffff;fill-opacity:1;fill-rule:nonzero;stroke:none"
         id="path3630" />
    </g>
    <g
       id="g3632"
       transform="matrix(25.882115,0,0,-25.882115,30.59266,256)">
      <path
         d="M 0,0 C -0.652,0 -1.182,0.529 -1.182,1.184 L -1.182,8.707 C -1.182,9.359 -0.652,9.889 0,9.889 L 7.527,9.889 C 8.18,9.889 8.709,9.359 8.709,8.707 L 8.709,1.184 C 8.709,0.529 8.18,0 7.527,0 L 0,0 z"
         style="fill:#000000;fill-opacity:1;fill-rule:nonzero;stroke:none"
         id="path3634" />
    </g>
    <g
       id="g3636"
       transform="matrix(25.882115,0,0,-25.882115,60.97288,203.83201)">
      <path
         d="M 0,0 C -0.795,0 -1.439,1.314 -1.439,2.936 C -1.439,4.557 -0.795,5.871 0,5.871 L 5.133,5.871 C 5.928,5.871 6.572,4.557 6.572,2.936 C 6.572,1.314 5.928,0 5.133,0 L 0,0 z"
         style="fill:#ffffff;fill-opacity:1;fill-rule:nonzero;stroke:none"
         id="path3638" />
    </g>
    <g
       id="g3640"
       transform="matrix(25.882115,0,0,-25.882115,131.4917,110.10997)">
      <path
         d="M 0,0 C 0.381,0 0.688,-0.309 0.688,-0.688 C 0.688,-1.068 0.381,-1.377 0,-1.377 L -0.18,-1.377 L -0.18,0 L 0,0 z M 0.07,-1.979 C 0.783,-1.979 1.363,-1.4 1.363,-0.688 C 1.363,0.027 0.789,0.605 0.076,0.605 L 0.068,0.605 L -0.723,0.605 L -0.723,-1.98 L 0.07,-1.98"
         style="fill:#000000;fill-opacity:1;fill-rule:nonzero;stroke:none"
         id="path3642" />
    </g>
    <g
       id="g3644"
       transform="matrix(25.882115,0,0,-25.882115,105.86323,161.36733)">
      <path
         d="M 0,0 L -0.566,0 L -0.566,0.342 L -1.514,0.342 L -1.732,0 L -2.563,0 L -0.707,2.586 L 0,2.586 L 0,0 z"
         style="fill:#000000;fill-opacity:1;fill-rule:nonzero;stroke:none"
         id="path3646" />
    </g>
    <g
       id="g3648"
       transform="matrix(25.882115,0,0,-25.882115,91.304441,138.57015)">
      <path
         d="M 0,0 L -0.596,0 L 0,0.926 L 0,0 z"
         style="fill:#ffffff;fill-opacity:1;fill-rule:nonzero;stroke:none"
         id="path3650" />
    </g>
    <g
       id="g3652"
       transform="matrix(25.882115,0,0,-25.882115,205.95434,94.386897)">
      <path
         d="M 0,0 L -0.082,0 L -0.236,0 L -0.318,0 C 0.041,-0.357 0.248,-0.846 0.248,-1.354 C 0.248,-1.805 0.086,-2.236 -0.201,-2.578 L -0.119,-2.578 L 0.021,-2.578 L 0.104,-2.578 C 0.359,-2.227 0.502,-1.797 0.502,-1.354 C 0.502,-0.855 0.32,-0.375 0,0"
         style="fill:#000000;fill-opacity:1;fill-rule:nonzero;stroke:none"
         id="path3654" />
    </g>
    <g
       id="g3656"
       transform="matrix(25.882115,0,0,-25.882115,189.12061,94.386897)">
      <path
         d="M 0,0 L -0.082,0 L -0.236,0 L -0.318,0 C 0.041,-0.357 0.248,-0.846 0.248,-1.354 C 0.248,-1.805 0.086,-2.236 -0.201,-2.578 L -0.119,-2.578 L 0.021,-2.578 L 0.102,-2.578 C 0.359,-2.227 0.502,-1.797 0.502,-1.354 C 0.502,-0.855 0.32,-0.375 0,0"
         style="fill:#000000;fill-opacity:1;fill-rule:nonzero;stroke:none"
         id="path3658" />
    </g>
    <g
       id="g3660"
       transform="matrix(25.882115,0,0,-25.882115,172.23554,94.386897)">
      <path
         d="M 0,0 L -0.08,0 L -0.236,0 L -0.316,0 C 0.043,-0.357 0.248,-0.846 0.248,-1.354 C 0.248,-1.805 0.086,-2.236 -0.199,-2.578 L -0.117,-2.578 L 0.021,-2.578 L 0.104,-2.578 C 0.361,-2.227 0.502,-1.797 0.502,-1.354 C 0.502,-0.855 0.322,-0.375 0,0"
         style="fill:#000000;fill-opacity:1;fill-rule:nonzero;stroke:none"
         id="path3662" />
    </g>
  </g>
</svg>
